X:31
T:Lady Anne Montgomery
S:Bernie Waugh
R:Reel
M:2/4
L:1/16
K:D
"D"FADA FADA|FAdA "A"BAdA|"D"FADF "C"E2FE|"G"DB,A,B, "D"D2DE|
"D"FADA FADA|FAdA "A"BABc|"D"dBAF "C"E2FE|"G"DB,A,B, "D"D4:|
|:\
"D"f3~f fede|fedB "A"ABde|"Bm"f3~f fede|fgaf "A"eAce|
"G"f3~f fede|"E"fedB ABde|"D"fded "G"(3Bcd Ad|"A"egfe "D"d4:|


